X:1
P: Lord Moira
C: Athole Collection
C: Arr. T. Traub 8-18-2003
K: F
M: 4/4
L: 1/8
C |:"F"F<F F2 A<c c2|"Bb"B>G "F"A>F "C"G>F E<C|"F"F<F F2 A<c c2|"Bb"d>f "C"e/f/g/e/ "F"f2 f<a :|
"F"f<f a>f "C"g>f e<c|"Bb"d<df>d "C"c>B "F"A<F|"Dm"f<fa>f "C"g>f e<c|"Bb"d>f "C"e/f/g/e/ "F"f2 f<a|
"Bb"b>g "F"a>f "Gm"g>f d>f|"F"d/c/B/A/ fA "Gm"B/A/G/F/ "C"G>A|"F"F<F F2 "Bb"B<d d2|"C"c>f e/f/g/e/ "F"f2 f>a|
|: "F"A>F c>F "Bb"d/c/B/A/ c>f|"F"A<F c>F "C"G>A B>d|"F"A>F c>F d/c/B/A/ c>f|"Bb"d>f "C"e/f/g/e/ "F"f2 f>a :|
"F"f<a f<a "C"e<g c2|"Bb"d>e f>d "F"c>B A<F|"F"(3fga (3fga "C"(3efg c2|"Bb"d>f "C"e/f/g/e/ "F"f2 f>c|
"Bb"dB A>F "C"G>F E<C|"F"(3FGA "C"(3GAB "F"(3ABc "Bb"Bcd|"F"c>f "C"a/g/f/e/ "F"f2 f |]
